X:1
T:Dalton, LMD
T:Dalton, LMD
T:John Robson Sweney, 1890
T:Public Domain Courtesy of the Cyber Hymnal™
C:John Robson Sweney, 1890
Z:Public Domain
Z:Courtesy of the Cyber Hymnal™
%%score ( 1 2 ) ( 3 4 )
L:1/8
Q:1/4=92
M:3/4
K:F
V:1 treble 
V:2 treble 
V:3 bass 
V:4 bass 
V:1
 [CF]2 | [FA]>[FA] [FA]3 [CF] | [Fc]>[Fc] [Fc]3 [FA] | [Ec]>[EB] [EB]3 [Ec] | [GB]>[FA] [FA]3 C | %5
 [CF]>[CG] [FA]3 [CF] | [FA]>[GB] [Ac]3 [Fc] | [Fd]>[Fd] [Fc]3 [FA] | %8
 [EG]>[CF] !fermata![CF]2 [Fc]2 | [Ec]>[EG] [EB]3 [CE] | [CF]>[FA] [Fc]3 [Fc] | %11
 [Fd]>[Fd] [Fc]3 [FA] | [EG]>[FG] [EG]3 C | [CF]>[CG] [FA]3 [CF] | [FA]>[GB] [Ac]3 [Fc] | %15
 [Fd]>[Fd] [Fc]3 [FA] | [EG]>[CF] !fermata![CF]2 |] %17
V:2
 x2 | x6 | x6 | x6 | x5 C | x6 | x6 | x6 | x6 | x6 | x6 | x6 | x5 C | x6 | x6 | x6 | x4 |] %17
V:3
 [F,A,]2 | [F,C]>[F,C] [F,C]3 [F,A,] | [F,A,]>[F,A,] [F,A,]3 [F,A,] | [C,G,]>[C,G,] [C,C]3 [C,C] | %4
 [F,C]>[F,C] [F,C]3 [F,A,] | [F,A,]>[F,B,] [F,C]3 [F,A,] | [F,C]>[F,C] [F,C]3 [A,C] | %7
 B,>B, [A,C]3 [F,C] | [C,B,]>[F,A,] !fermata![F,A,]2 [F,A,]2 | [C,G,]>[C,G,] [C,G,]3 [C,B,] | %10
 [F,A,]>[F,C] [F,A,]3 [A,C] | B,>B, [A,C]3 [F,C] | [G,C]>[G,=B,] [C,C]3 [E,_B,] | %13
 [F,A,]>[F,B,] [F,C]3 [F,A,] | [F,C]>[F,C] [F,C]3 [A,C] | B,>B, [A,C]3 [F,C] | %16
 [C,B,]>[F,A,] !fermata![F,A,]2 |] %17
V:4
 x2 | x6 | x6 | x6 | x6 | x6 | x6 | B,>B, x4 | x6 | x6 | x6 | B,>B, x4 | x6 | x6 | x6 | B,>B, x4 | %16
 x4 |] %17

